assets/robots-logo1.svg

<svg fill="none" xmlns="http://www.w3.org/2000/svg" viewBox="0 0 188 28">
  <path d="M23.8737 21.96H12.7931v5.5403H27.5L23.8737 21.96Z" fill="#74777E"/>
  <path d="M23.8737 0H0v27.5h6.4469V5.5403h17.4268v5.5403H12.7931v5.5403h10.9798c3.022 0 5.5403-2.4176 5.5403-5.5403V5.5403C29.3132 2.41759 26.8956 0 23.8737 0ZM161.172 8.05908c-4.23 0-6.95 2.11542-6.95 6.44692v3.7271c0 4.13 2.518 6.1447 7.555 6.1447h1.612v-2.3169h-1.612c-3.727 0-4.835-1.0073-4.835-4.0293V16.017h10.879v-1.6118c0-4.2307-2.619-6.34612-6.649-6.34612Zm-.1 2.31682c2.619 0 4.13 1.3096 4.13 3.4249h-8.26c.201-2.2161 1.309-3.4249 4.13-3.4249ZM144.552 15.2111v9.1667h2.719v-9.1667c0-3.4249.907-4.8352 4.735-4.8352V8.05908c-5.44 0-7.454 2.31682-7.454 7.15202ZM178.901 14.2038l-5.036-5.84247h-3.425l6.85 7.65567-7.757 8.3608h3.526l5.439-6.6483 5.843 6.6483h3.526l-7.757-8.3608 6.85-7.65567h-3.324l-4.735 5.84247ZM101.035 8.05908c-4.533 0-6.8499 2.21612-6.8499 6.64832v3.2235c0 4.4322 2.3169 6.6484 6.8499 6.6484 4.634 0 6.85-2.1154 6.85-6.5477v-3.4249c-.101-4.2308-2.317-6.54762-6.85-6.54762Zm-.101 2.21612c3.022 0 4.13 1.6117 4.13 4.533v3.1227c0 2.9212-1.209 4.533-4.13 4.533s-4.1298-1.6118-4.1298-4.533v-3.1227c0-2.9213 1.2088-4.533 4.1298-4.533ZM40.1924 3.82812V24.3776h2.7197v-8.8645h2.9213l6.1447 8.8645h3.3242l-6.5476-9.1667c3.0219-.7051 5.1373-1.9139 5.1373-5.64101 0-3.82784-2.619-5.74177-8.0586-5.74177h-5.641Zm2.8205 2.21613h2.9212c3.1227 0 5.3389.60439 5.3389 3.52564 0 3.22341-2.5183 3.62641-5.3389 3.62641h-2.9212V6.04425ZM133.572 8.05908c-4.533 0-6.85 2.21612-6.85 6.64832v3.2235c0 4.4322 2.317 6.6484 6.85 6.6484 4.633 0 6.849-2.1154 6.849-6.5477v-3.4249c-.1-4.2308-2.316-6.54762-6.849-6.54762Zm-.101 2.21612c3.022 0 4.13 1.6117 4.13 4.533v3.1227c0 2.9212-1.209 4.533-4.13 4.533s-4.13-1.6118-4.13-4.533v-3.1227c0-2.9213 1.209-4.533 4.13-4.533ZM112.116 6.14498V24.3776h2.719v-9.3681h8.663v-2.3169h-8.663V6.14498h8.663V3.82812h-11.382v2.31686ZM76.154 1.71289V18.2331c0 4.13 2.4175 6.3461 6.9505 6.3461 4.533 0 6.6484-2.1154 6.6484-6.5476v-3.6264c.1007-4.13-2.2161-6.34614-6.1447-6.34614-2.0147 0-3.4249.60439-4.7344 1.71245V1.71289H76.154Zm6.8498 8.66301c3.022 0 4.13 1.6117 4.13 4.2308v3.6264c0 2.619-.9066 4.2307-4.13 4.2307-2.8205 0-4.13-1.4102-4.13-4.2307v-3.6264c0-2.8205 1.4102-4.2308 4.13-4.2308ZM65.1741 8.05908c-4.533 0-6.8498 2.21612-6.8498 6.64832v3.2235c0 4.4322 2.3168 6.6484 6.8498 6.6484 4.6337 0 6.8498-2.1154 6.8498-6.5477v-3.4249c-.1007-4.2308-2.3168-6.54762-6.8498-6.54762Zm-.1007 2.21612c3.0219 0 4.13 1.6117 4.13 4.533v3.1227c0 2.9212-1.2088 4.533-4.13 4.533-2.9213 0-4.1301-1.6118-4.1301-4.533v-3.1227c0-2.9213 1.2088-4.533 4.1301-4.533Z" fill="#74777E"/>
</svg>

<svg width="188" height="28" viewBox="0 0 188 28" fill="none" xmlns="http://www.w3.org/2000/svg">
<path d="M23.8737 21.96H12.7931V27.5003H27.5L23.8737 21.96Z" fill="#74777E"/>
<path d="M23.8737 0H0V27.5H6.4469V5.5403H23.8737V11.0806H12.7931V16.6209H23.7729C26.7949 16.6209 29.3132 14.2033 29.3132 11.0806V5.5403C29.3132 2.41759 26.8956 0 23.8737 0Z" fill="#74777E"/>
<path d="M161.172 8.05908C156.942 8.05908 154.222 10.1745 154.222 14.506V18.2331C154.222 22.3631 156.74 24.3778 161.777 24.3778H163.389V22.0609H161.777C158.05 22.0609 156.942 21.0536 156.942 18.0316V16.017H167.821V14.4052C167.821 10.1745 165.202 8.05908 161.172 8.05908ZM161.072 10.3759C163.691 10.3759 165.202 11.6855 165.202 13.8008H156.942C157.143 11.5847 158.251 10.3759 161.072 10.3759Z" fill="#74777E"/>
<path d="M144.552 15.2111V24.3778H147.271V15.2111C147.271 11.7862 148.178 10.3759 152.006 10.3759V8.05908C146.566 8.05908 144.552 10.3759 144.552 15.2111Z" fill="#74777E"/>
<path d="M178.901 14.2038L173.865 8.36133H170.44L177.29 16.017L169.533 24.3778H173.059L178.498 17.7295L184.341 24.3778H187.867L180.11 16.017L186.96 8.36133H183.636L178.901 14.2038Z" fill="#74777E"/>
<path d="M101.035 8.05908C96.502 8.05908 94.1851 10.2752 94.1851 14.7074V17.9309C94.1851 22.3631 96.502 24.5793 101.035 24.5793C105.669 24.5793 107.885 22.4639 107.885 18.0316V14.6067C107.784 10.3759 105.568 8.05908 101.035 8.05908ZM100.934 10.2752C103.956 10.2752 105.064 11.8869 105.064 14.8082V17.9309C105.064 20.8521 103.855 22.4639 100.934 22.4639C98.013 22.4639 96.8042 20.8521 96.8042 17.9309V14.8082C96.8042 11.8869 98.013 10.2752 100.934 10.2752Z" fill="#74777E"/>
<path d="M40.1924 3.82812V24.3776H42.9121V15.5131H45.8334L51.9781 24.3776H55.3023L48.7547 15.2109C51.7766 14.5058 53.892 13.297 53.892 9.56989C53.892 5.74205 51.273 3.82812 45.8334 3.82812H40.1924ZM43.0129 6.04425H45.9341C49.0568 6.04425 51.273 6.64864 51.273 9.56989C51.273 12.7933 48.7547 13.1963 45.9341 13.1963H43.0129V6.04425Z" fill="#74777E"/>
<path d="M133.572 8.05908C129.039 8.05908 126.722 10.2752 126.722 14.7074V17.9309C126.722 22.3631 129.039 24.5793 133.572 24.5793C138.205 24.5793 140.421 22.4639 140.421 18.0316V14.6067C140.321 10.3759 138.105 8.05908 133.572 8.05908ZM133.471 10.2752C136.493 10.2752 137.601 11.8869 137.601 14.8082V17.9309C137.601 20.8521 136.392 22.4639 133.471 22.4639C130.55 22.4639 129.341 20.8521 129.341 17.9309V14.8082C129.341 11.8869 130.55 10.2752 133.471 10.2752Z" fill="#74777E"/>
<path d="M112.116 6.14498V24.3776H114.835V15.0095H123.498V12.6926H114.835V6.14498H123.498V3.82812H112.116V6.14498Z" fill="#74777E"/>
<path d="M76.154 1.71289V18.2331C76.154 22.3631 78.5715 24.5792 83.1045 24.5792C87.6375 24.5792 89.7529 22.4638 89.7529 18.0316V14.4052C89.8536 10.2752 87.5368 8.05906 83.6082 8.05906C81.5935 8.05906 80.1833 8.66345 78.8738 9.77151V1.71289H76.154ZM83.0038 10.3759C86.0258 10.3759 87.1338 11.9876 87.1338 14.6067V18.2331C87.1338 20.8521 86.2272 22.4638 83.0038 22.4638C80.1833 22.4638 78.8738 21.0536 78.8738 18.2331V14.6067C78.8738 11.7862 80.284 10.3759 83.0038 10.3759Z" fill="#74777E"/>
<path d="M65.1741 8.05908C60.6411 8.05908 58.3243 10.2752 58.3243 14.7074V17.9309C58.3243 22.3631 60.6411 24.5793 65.1741 24.5793C69.8078 24.5793 72.0239 22.4639 72.0239 18.0316V14.6067C71.9232 10.3759 69.7071 8.05908 65.1741 8.05908ZM65.0734 10.2752C68.0953 10.2752 69.2034 11.8869 69.2034 14.8082V17.9309C69.2034 20.8521 67.9946 22.4639 65.0734 22.4639C62.1521 22.4639 60.9433 20.8521 60.9433 17.9309V14.8082C60.9433 11.8869 62.1521 10.2752 65.0734 10.2752Z" fill="#74777E"/>
</svg>
